static/img/icon-editbox-add.svg

<?xml version="1.0" encoding="UTF-8" standalone="no"?>
<!-- Created with Inkscape (http://www.inkscape.org/) -->

<svg
   xmlns:dc="http://purl.org/dc/elements/1.1/"
   xmlns:cc="http://creativecommons.org/ns#"
   xmlns:rdf="http://www.w3.org/1999/02/22-rdf-syntax-ns#"
   xmlns:svg="http://www.w3.org/2000/svg"
   xmlns="http://www.w3.org/2000/svg"
   xmlns:sodipodi="http://sodipodi.sourceforge.net/DTD/sodipodi-0.dtd"
   xmlns:inkscape="http://www.inkscape.org/namespaces/inkscape"
   width="64"
   height="32"
   version="1.1"
   viewBox="0 0 16.9334 8.4667"
   id="svg37"
   sodipodi:docname="icon-editbox-add.svg"
   inkscape:version="0.92.4 (0.92.4+202003022015+8da6682)">
  <sodipodi:namedview
     pagecolor="#ffffff"
     bordercolor="#666666"
     borderopacity="1"
     objecttolerance="10"
     gridtolerance="10"
     guidetolerance="10"
     inkscape:pageopacity="0"
     inkscape:pageshadow="2"
     inkscape:window-width="1920"
     inkscape:window-height="992"
     id="namedview39"
     showgrid="false"
     inkscape:zoom="8.532282"
     inkscape:cx="19.303905"
     inkscape:cy="16.761944"
     inkscape:window-x="1360"
     inkscape:window-y="0"
     inkscape:window-maximized="1"
     inkscape:current-layer="svg37" />
  <defs
     id="defs13">
    <filter
       id="filter941"
       x="-0.11"
       width="1.25"
       style="color-interpolation-filters:sRGB">
      <feFlood
         flood-color="rgb(0,0,0)"
         flood-opacity=".49804"
         result="flood"
         id="feFlood2" />
      <feComposite
         in="flood"
         in2="SourceGraphic"
         operator="in"
         result="composite1"
         id="feComposite4" />
      <feGaussianBlur
         in="composite1"
         result="blur"
         stdDeviation="0.29999999999999999"
         id="feGaussianBlur6" />
      <feOffset
         dx="0"
         dy="0"
         result="offset"
         id="feOffset8" />
      <feComposite
         in="offset"
         in2="SourceGraphic"
         operator="out"
         result="composite2"
         id="feComposite10" />
    </filter>
    <filter
       style="color-interpolation-filters:sRGB"
       inkscape:label="Drop Shadow"
       id="filter950">
      <feFlood
         flood-opacity="0.498039"
         flood-color="rgb(0,0,0)"
         result="flood"
         id="feFlood940" />
      <feComposite
         in="flood"
         in2="SourceGraphic"
         operator="in"
         result="composite1"
         id="feComposite942" />
      <feGaussianBlur
         in="composite1"
         stdDeviation="0.6"
         result="blur"
         id="feGaussianBlur944" />
      <feOffset
         dx="0"
         dy="0"
         result="offset"
         id="feOffset946" />
      <feComposite
         in="offset"
         in2="SourceGraphic"
         operator="out"
         result="fbSourceGraphic"
         id="feComposite948" />
      <feColorMatrix
         result="fbSourceGraphicAlpha"
         in="fbSourceGraphic"
         values="0 0 0 -1 0 0 0 0 -1 0 0 0 0 -1 0 0 0 0 1 0"
         id="feColorMatrix952" />
      <feFlood
         id="feFlood954"
         flood-opacity="0.498039"
         flood-color="rgb(0,0,0)"
         result="flood"
         in="fbSourceGraphic" />
      <feComposite
         in2="fbSourceGraphic"
         id="feComposite956"
         in="flood"
         operator="in"
         result="composite1" />
      <feGaussianBlur
         id="feGaussianBlur958"
         in="composite1"
         stdDeviation="0.3"
         result="blur" />
      <feOffset
         id="feOffset960"
         dx="0"
         dy="0"
         result="offset" />
      <feComposite
         in2="fbSourceGraphic"
         id="feComposite962"
         in="offset"
         operator="out"
         result="fbSourceGraphic" />
      <feColorMatrix
         result="fbSourceGraphicAlpha"
         in="fbSourceGraphic"
         values="0 0 0 -1 0 0 0 0 -1 0 0 0 0 -1 0 0 0 0 1 0"
         id="feColorMatrix964" />
      <feFlood
         id="feFlood966"
         flood-opacity="0.498039"
         flood-color="rgb(0,0,0)"
         result="flood"
         in="fbSourceGraphic" />
      <feComposite
         in2="fbSourceGraphic"
         id="feComposite968"
         in="flood"
         operator="in"
         result="composite1" />
      <feGaussianBlur
         id="feGaussianBlur970"
         in="composite1"
         stdDeviation="0.5"
         result="blur" />
      <feOffset
         id="feOffset972"
         dx="0"
         dy="0"
         result="offset" />
      <feComposite
         in2="fbSourceGraphic"
         id="feComposite974"
         in="offset"
         operator="out"
         result="fbSourceGraphic" />
      <feColorMatrix
         result="fbSourceGraphicAlpha"
         in="fbSourceGraphic"
         values="0 0 0 -1 0 0 0 0 -1 0 0 0 0 -1 0 0 0 0 1 0"
         id="feColorMatrix976" />
      <feFlood
         id="feFlood978"
         flood-opacity="0.498039"
         flood-color="rgb(0,0,0)"
         result="flood"
         in="fbSourceGraphic" />
      <feComposite
         in2="fbSourceGraphic"
         id="feComposite980"
         in="flood"
         operator="in"
         result="composite1" />
      <feGaussianBlur
         id="feGaussianBlur982"
         in="composite1"
         stdDeviation="0.5"
         result="blur" />
      <feOffset
         id="feOffset984"
         dx="0"
         dy="0"
         result="offset" />
      <feComposite
         in2="fbSourceGraphic"
         id="feComposite986"
         in="offset"
         operator="out"
         result="fbSourceGraphic" />
      <feColorMatrix
         result="fbSourceGraphicAlpha"
         in="fbSourceGraphic"
         values="0 0 0 -1 0 0 0 0 -1 0 0 0 0 -1 0 0 0 0 1 0"
         id="feColorMatrix988" />
      <feFlood
         id="feFlood990"
         flood-opacity="0.498039"
         flood-color="rgb(0,0,0)"
         result="flood"
         in="fbSourceGraphic" />
      <feComposite
         in2="fbSourceGraphic"
         id="feComposite992"
         in="flood"
         operator="in"
         result="composite1" />
      <feGaussianBlur
         id="feGaussianBlur994"
         in="composite1"
         stdDeviation="0.5"
         result="blur" />
      <feOffset
         id="feOffset996"
         dx="0"
         dy="0"
         result="offset" />
      <feComposite
         in2="fbSourceGraphic"
         id="feComposite998"
         in="offset"
         operator="out"
         result="composite2" />
    </filter>
    <filter
       style="color-interpolation-filters:sRGB"
       inkscape:label="Drop Shadow"
       id="filter1046">
      <feFlood
         flood-opacity="0.498039"
         flood-color="rgb(0,0,0)"
         result="flood"
         id="feFlood1036" />
      <feComposite
         in="flood"
         in2="SourceGraphic"
         operator="in"
         result="composite1"
         id="feComposite1038" />
      <feGaussianBlur
         in="composite1"
         stdDeviation="0.20000000000000001"
         result="blur"
         id="feGaussianBlur1040" />
      <feOffset
         dx="0"
         dy="0"
         result="offset"
         id="feOffset1042" />
      <feComposite
         in="offset"
         in2="SourceGraphic"
         operator="out"
         result="composite2"
         id="feComposite1044" />
    </filter>
  </defs>
  <metadata
     id="metadata15">
    <rdf:RDF>
      <cc:Work
         rdf:about="">
        <dc:format>image/svg+xml</dc:format>
        <dc:type
           rdf:resource="http://purl.org/dc/dcmitype/StillImage" />
        <dc:title></dc:title>
      </cc:Work>
    </rdf:RDF>
  </metadata>
  <path
     id="path1059"
     style="color:#000000;font-variant-ligatures:normal;font-variant-position:normal;font-variant-caps:normal;font-variant-numeric:normal;font-variant-alternates:normal;font-feature-settings:normal;text-indent:0;text-decoration:none;text-decoration-line:none;text-decoration-style:solid;text-decoration-color:#000000;text-transform:none;text-orientation:mixed;dominant-baseline:auto;white-space:normal;shape-padding:0;isolation:auto;mix-blend-mode:normal;solid-color:#000000;stroke:#000000;stroke-width:0.06623713;stroke-linecap:round;stroke-linejoin:round;paint-order:stroke fill markers;color-rendering:auto;image-rendering:auto;shape-rendering:auto"
     d="m 14.098989,3.2970225 v 0.7021304 h -0.702132 v 0.4680869 h 0.702132 v 0.7021307 h 0.468086 V 4.4672398 h 0.702131 V 3.9991529 H 14.567075 V 3.2970225 Z m 0.234069,-0.9553684 c -1.041792,0 -1.891696,0.8499051 -1.891696,1.8916959 0,1.0417911 0.849904,1.8916958 1.891696,1.8916958 1.04179,0 1.891695,-0.8499047 1.891695,-1.8916958 0,-1.0417908 -0.849905,-1.8916959 -1.891695,-1.8916959 z m 0,0.4847474 c 0.77971,0 1.406252,0.627239 1.406252,1.4069485 0,0.7797094 -0.626542,1.4062533 -1.406252,1.4062533 -0.77971,0 -1.406949,-0.6265439 -1.406949,-1.4062533 0,-0.7797095 0.627239,-1.4069485 1.406949,-1.4069485 z"
     inkscape:connector-curvature="0" />
  <path
     id="path1071"
     style="color:#000000;font-variant-ligatures:normal;font-variant-position:normal;font-variant-caps:normal;font-variant-numeric:normal;font-variant-alternates:normal;font-feature-settings:normal;text-indent:0;text-decoration:none;text-decoration-line:none;text-decoration-style:solid;text-decoration-color:#000000;text-transform:none;text-orientation:mixed;dominant-baseline:auto;white-space:normal;shape-padding:0;isolation:auto;mix-blend-mode:normal;solid-color:#000000;stroke:#000000;stroke-width:0.05583003;stroke-linecap:round;stroke-linejoin:round;paint-order:stroke fill markers;color-rendering:auto;image-rendering:auto;shape-rendering:auto"
     d="M 3.1318191,3.0978729 1.9629285,5.3688269 H 2.51865 L 2.8082346,4.7591748 H 3.539231 L 3.603713,5.3688269 H 4.145952 L 3.7989193,3.0978729 Z m 0.2561711,0.3739979 h 0.00645 c 0.016844,0.1280215 0.036939,0.2896361 0.050413,0.4109291 l 0.060966,0.4853767 H 2.9665096 L 3.2027499,3.8827999 C 3.2701285,3.7514112 3.3273476,3.5999017 3.3879902,3.4718708 Z M 4.693676,2.2803321 c -1.3300139,0.0019 -2.6600281,0.0076 -3.99023271,0 v 4.0031728 c 2.05881111,0.037783 4.11807851,-0.00787 6.17692731,0 V 5.8255056 c -1.9092006,-0.00266 -3.8182495,3.916e-4 -5.7275647,0 V 2.7530568 H 6.8803706 V 2.2804462 c -0.7289105,7.585e-4 -1.4578599,-0.00152 -2.1867704,0 z M 9.0240695,2.7529427 H 10.311507 V 5.8253913 H 9.025516 c 0.002,0.1526652 0.00396,0.3053344 0.00595,0.4579997 h 1.746655 c 0.02023,-1.4664971 0.01266,-2.5365239 9.26e-4,-4.0031731 H 9.0240596 V 2.7528285 Z M 7.7287566,0.95956409 c 3.2e-6,3.347e-4 1.36e-5,7.5891e-4 1.71e-5,0.001138 C 7.5052488,0.95994342 7.205519,0.95880462 7.0249753,0.96108306 V 1.4166474 h 0.7076409 c 0.00153,0.2123799 0.00271,0.425011 0.00349,0.6379348 -0.00177,0.7238505 -4.272e-4,1.4511633 7.121e-4,2.1787806 -0.00269,1.0159355 0.00142,1.8969456 -0.0042,2.8166772 H 7.0249741 v 0.4555646 c 0.1805402,0.00227 0.4802963,0.00114 0.7037984,3.917e-4 -3.5e-6,3.348e-4 -1.39e-5,7.477e-4 -1.67e-5,0.00114 h 0.4940703 v -0.00153 H 8.9157813 V 7.0500409 H 8.2233974 c 0.00136,-0.9246748 0.00188,-1.8691351 0.00178,-2.8166774 1.614e-4,-0.9475426 -3.917e-4,-1.8920409 -0.00178,-2.8167156 H 8.9157813 V 0.96108608 H 8.2228269 v -0.001521 z"
     inkscape:connector-curvature="0" />
</svg>

<svg xmlns="http://www.w3.org/2000/svg" width="64" height="32" viewBox="0 0 16.933 8.467">
  <defs/>
  <path  d="M14.099 3.297v.702h-.702v.468h.702v.702h.468v-.702h.702V4h-.702v-.702zm.234-.955c-1.042 0-1.892.85-1.892 1.891 0 1.042.85 1.892 1.892 1.892 1.042 0 1.892-.85 1.892-1.892 0-1.041-.85-1.891-1.892-1.891zm0 .484c.78 0 1.406.628 1.406 1.407 0 .78-.626 1.407-1.406 1.407-.78 0-1.407-.627-1.407-1.407s.627-1.407 1.407-1.407z" color="#000" paint-order="stroke fill markers"/>
  <path d="M3.132 3.098l-1.17 2.27h.557l.29-.609h.73l.065.61h.542l-.347-2.271zm.256.374h.006c.017.128.037.29.05.41l.062.486h-.54l.237-.485c.067-.132.124-.283.185-.411zM4.694 2.28c-1.33.002-2.66.008-3.99 0v4.004c2.058.037 4.118-.008 6.176 0v-.458c-1.909-.003-3.818 0-5.727 0V2.753H6.88V2.28H4.694zm4.33.473h1.288v3.072H9.026l.005.458h1.747c.02-1.466.013-2.536.001-4.003H9.024v.473zM7.73.96s0 0 0 0c-.224 0-.523-.001-.704.001v.456h.708l.003.638c-.002.723 0 1.45 0 2.178-.002 1.016.002 1.897-.003 2.817h-.708v.456c.18.002.48 0 .704 0v.001h.494v-.001h.693V7.05h-.693a1793.522 1793.522 0 000-5.633h.693V.96h-.693V.96z" color="#000" paint-order="stroke fill markers"/>
</svg>
